X: 2
T: No_11_The_Dancers_Approach_the_Lodge_(a).krn
N: Derived from No_11_The_Dancers_Approach_the_Lodge_(a).krn
%%abc-version 2.0
%%abcx-abcm2ps-target-version 5.9.1 (29 Sep 2008)
%%abc-creator hum2abc beta
%%abcx-conversion-date 2019/03/15 08:35:00
%%humdrum-veritas 2830377496
%%humdrum-veritas-data 1124236479
%%linebreak <none>
%%barnumbers 0
L: 1/8
M: 3/4
K: E clef=bass
[K:clef=bass][M:3/4]F,3/F,/ E,3/F,/ E, z | 
G,3/F,/ E,3/E,/ F, z | 
F,3/E,/ E,3/F,/F,2 | 
G,3/F,/ E,3/F,/ F, z | 
G,3/F,/ E,3/F,/ F, z | 
F,3/E,/ E,3/F,/F,2 ]|:  
[M:2/4]B,2F,F, | 
G,2G,3/F,/ | 
E,F, F, z | 
[M:3/4]G,3/F,/ E,3/F,/ F, z | 
F,3/E,/ E,3/F,/F,2 | 
G,3/F,/ E,3/F,/ F, z | 
G,3/F,/ E,3/F,/F,2 | 
F,3/E,/ E,3/F,/F,2 :|]  



